X: 14
T:Sitting on Top of the World
C:Walter Vinson and Lonnie Chatmon
S:https://www.idahobluegrassassociation.org/beginner-jam/category/sitting-on-top-of-the-world
R: Bluegrass
M:4/4
L:1/8
K:G
B=c^c|"G"d8-|d2d2B2G2|B8|z2d2d2d2|
w: It~was in the spr-ing one sun-ny day, my good gal 
"C"A2 G6|z2G2_B2A2|"G"G6z2|z2D2E2G2|
w: left me Lord she went away. And now she’s 
"G"B8-|B2G2A2B2|"Em"A2G6|z4D2G2|
w: go-ne but I don’t wor-ry, ‘cause I’m
"G"B2B2B4|"D"A4B2A2|"G"G6 z2|
w: sit-ting on top of the world
W: 2. She called me up from down in El Paso, 
W:said come back, daddy, Lord I need you so
W:
W: 3. Ashes to ashes, dust to dust, 
W:show me a woman a man can trust
W:
W: 4. Mississippi River, long, deep and wide, 
W:the woman I’m loving is on the other side
W:
W: 5. You don’t like my peaches, don’t you shake my tree, 
W:get out of my orchard, let my peaches be
W:
W: 6. Don’t you come here running, holding out your hand, 
W:I’ll get me a woman like you got your man

